public/hat-logo.svg

<?xml version="1.0" encoding="UTF-8"?>
<svg id="Layer_1" xmlns="http://www.w3.org/2000/svg" version="1.1" viewBox="0 0 640 640">
  <!-- Generator: Adobe Illustrator 29.5.0, SVG Export Plug-In . SVG Version: 2.1.0 Build 137)  -->
  <defs>
    <style>
      .st0 {
        fill: #fff;
      }
    </style>
  </defs>
  <path class="st0" d="M80,259.8l209.2,86.1c9.8,4,20.2,6.1,30.8,6.1s21-2.1,30.8-6.1l242.4-99.8c9-3.7,14.8-12.4,14.8-22.1s-5.8-18.4-14.8-22.1l-242.4-99.8c-9.8-4-20.2-6.1-30.8-6.1s-21,2.1-30.8,6.1L46.8,201.9c-9,3.7-14.8,12.4-14.8,22.1v296c0,13.3,10.7,24,24,24s24-10.7,24-24v-260.2ZM128,331.5v116.5c0,53,86,96,192,96s192-43,192-96v-116.6l-142.9,58.9c-15.6,6.4-32.2,9.7-49.1,9.7s-33.5-3.3-49.1-9.7l-142.9-58.9h0Z"/>
</svg>

<svg xmlns="http://www.w3.org/2000/svg" viewBox="0 0 640 640"><path d="M80 259.8L289.2 345.9C299 349.9 309.4 352 320 352C330.6 352 341 349.9 350.8 345.9L593.2 246.1C602.2 242.4 608 233.7 608 224C608 214.3 602.2 205.6 593.2 201.9L350.8 102.1C341 98.1 330.6 96 320 96C309.4 96 299 98.1 289.2 102.1L46.8 201.9C37.8 205.6 32 214.3 32 224L32 520C32 533.3 42.7 544 56 544C69.3 544 80 533.3 80 520L80 259.8zM128 331.5L128 448C128 501 214 544 320 544C426 544 512 501 512 448L512 331.4L369.1 390.3C353.5 396.7 336.9 400 320 400C303.1 400 286.5 396.7 270.9 390.3L128 331.4z"/></svg>
